24x24/actions/query-free-busy.svg

<svg xmlns="http://www.w3.org/2000/svg" width="24" height="24" version="1.1" viewBox="0 0 24 24">
 <defs>
  <style id="current-color-scheme" type="text/css">
   .ColorScheme-Text { color:#323a41; } .ColorScheme-Highlight { color:#4285f4; } .ColorScheme-NeutralText { color:#ff9800; } .ColorScheme-PositiveText { color:#4caf50; } .ColorScheme-NegativeText { color:#f44336; }
  </style>
 </defs>
 <path style="fill:currentColor" class="ColorScheme-Text" d="m 12,4 c -2.2091,-5.5e-6 -4,1.7909 -4,4 1.66e-5,2.2091 1.7909,4 4,4 2.2091,6e-6 4,-1.7909 4,-4 0,-2.2091 -1.791,-4 -4,-4 z m 0,8.986328 C 7.972,12.991128 4.5035,16.004 4,20 h 9.712891 C 12.678591,19.173 12,17.918 12,16.5 12,15.097 12.665341,13.840772 13.681641,13.013672 12.943141,12.999172 12.1873,12.987728 12,12.986328 Z M 16.5,13 A 3.5,3.5 0 0 0 13,16.5 3.5,3.5 0 0 0 16.5,20 3.5,3.5 0 0 0 20,16.5 3.5,3.5 0 0 0 16.5,13 Z M 16,14 h 1 v 1 h -1 z m 0,2 h 1 v 3 h -1 z"/>
</svg>

<svg xmlns="http://www.w3.org/2000/svg" width="24" height="24"><defs><style id="current-color-scheme" type="text/css"></style></defs><path style="fill:currentColor;color:#323a41" d="M12 4a4 4 0 1 0 0 8 4 4 0 0 0 0-8zm0 8.986c-4.028.005-7.497 3.018-8 7.014h9.713C12.679 19.173 12 17.918 12 16.5c0-1.403.665-2.66 1.682-3.486-.739-.015-1.495-.026-1.682-.028zm4.5.014a3.5 3.5 0 0 0-3.5 3.5 3.5 3.5 0 0 0 3.5 3.5 3.5 3.5 0 0 0 3.5-3.5 3.5 3.5 0 0 0-3.5-3.5zm-.5 1h1v1h-1zm0 2h1v3h-1z"/></svg>
